X:1
T:[ID 1-39]
T:[ID 1-39]
T:Bezeichnung standardisiert: Menuett Men.
T:Urheber unbekannt Datum in der hier transkribierten schriftlichen Quelle: vermutlich vor 1767
C:Urheber unbekannt
C:Datum in der hier transkribierten schriftlichen Quelle: vermutlich vor 1767
L:1/8
M:none
K:D
V:1 treble 
V:1
 d4 f2 | edcB A2 | e4 g2 | fedc d2 | f2 a^g a2 | e2 a^g a2 | BdcBA^G | A6 :: d4 =c2 | BA G4 | %10
 e4 d2 | cB A4 | a4 b2 | a2 bc' d'2 | a4 b2 | a2 bc' d'2 | egfedc | d6 :| %18

